packages/foundations/assets/icons/functional/images/transportation/electric_car.svg

<svg xmlns="http://www.w3.org/2000/svg" width="32" height="32" fill="none"><path fill="#1A1C1F" fill-rule="evenodd" d="M13.707 4.535c-2.349.053-3.946.173-4.609.346-.465.121-1.024.436-1.404.792-.561.525-.645.752-1.482 3.977a144 144 0 0 1-.752 2.84c-.014.024-.641.043-1.392.043-1.345 0-1.369.002-1.584.128a1.1 1.1 0 0 0-.351.36C2.009 13.238 2 13.302 2 14c0 .712.007.758.141.987.233.395.48.501 1.232.524l.627.02v.444c0 1.175.283 4.083.488 5.012.072.329.242.747.388.96.104.15.112.253.137 1.653l.027 1.493.155.336c.19.412.556.757.981.926.282.112.402.123 1.637.141 1.827.026 2.198-.06 2.712-.632.331-.367.462-.786.462-1.475v-.506l.253.031c.139.018 1.708.047 3.486.066l3.233.033.036.477c.063.829.346 1.433.961 2.048.392.393.858.684 1.364.856.272.092.505.099 3.2.099 3.222 0 3.083.014 3.813-.366.448-.232 1.07-.867 1.32-1.346.369-.706.359-.548.36-5.659v-4.598l.227-.067c.316-.095.645-.436.724-.75.035-.136.063-.454.063-.707 0-.649-.077-.906-.354-1.183-.166-.166-.287-.238-.444-.263-.175-.028-.216-.056-.216-.15 0-.432-.347-1.242-.719-1.677-.572-.67-1.311-1.107-2.041-1.206-.229-.031-.28-.057-.28-.141 0-.136-.174-.476-.301-.587-.289-.254-.339-.26-2.205-.26-1.438 0-1.793.015-1.915.078-.236.121-.481.436-.517.663l-.033.205-.348.058c-.648.107-1.545.639-1.965 1.164-.395.493-.662 1.072-.662 1.433v.172l-3.08.029c-1.694.015-4.034.059-5.2.096-1.165.038-2.134.053-2.153.034-.028-.028.993-4.063 1.242-4.906.094-.319.329-.589.607-.701.258-.103 1.612-.212 3.757-.303 2.912-.123 8.775.061 9.327.293.092.038.297.181.458.318.16.137.385.275.499.305.726.196 1.408-.492 1.212-1.22-.125-.465-.86-1.061-1.623-1.317-.942-.317-5.132-.495-9.366-.399m12.835 7.177c.112.091.258.259.324.373l.119.208.001 6.229c.001 5.171-.012 6.257-.073 6.4a1.08 1.08 0 0 1-.53.515c-.207.078-5.573.078-5.78-.001-.213-.08-.388-.256-.502-.503-.094-.203-.099-.497-.099-6.4 0-5.902.005-6.196.099-6.4.107-.232.264-.393.512-.525.142-.075.482-.084 2.942-.073l2.782.012zm-8.849 2.616.28.034v4.146l-2.438-.014-2.438-.014-.064-.38c-.073-.434-.159-.626-.375-.83-.401-.379-1.017-.343-1.39.081-.298.34-.313.488-.148 1.481.195 1.175.264 1.33.693 1.56.21.113.264.115 3.187.13l2.973.016v1.425l-.52.04c-.627.047-4.63-.011-5.933-.086-1.577-.092-2.83-.257-3.893-.513-.762-.184-.996-.32-1.13-.657-.053-.132-.321-2.407-.288-2.44.009-.009.429.035.934.099 1.064.134 1.233.111 1.557-.214.352-.352.39-.878.094-1.294-.203-.285-.451-.361-1.658-.512l-1.121-.14.02-.537c.025-.658.115-.85.487-1.035.227-.113.359-.131 1.252-.169.852-.037 4.165-.134 6.039-.176 1.361-.031 3.625-.032 3.88-.001m5.907.267a1.8 1.8 0 0 0-.286.198c-.07.063-.508.877-.974 1.81-.913 1.829-.934 1.893-.745 2.31.166.364.583.607 1.045.607h.223l-.427.867c-.344.696-.428.914-.429 1.11-.002.48.39.93.865.994.298.04.651-.1.864-.342.092-.106.526-.911.963-1.79.836-1.682.883-1.824.738-2.209-.139-.367-.586-.653-1.024-.655-.139-.001-.253-.013-.253-.026s.179-.386.398-.828c.445-.899.498-1.086.404-1.406-.166-.564-.875-.897-1.362-.64M7.808 23.492c.355.071.771.146.925.166l.28.036v.786H6.987v-.592c0-.528.009-.589.087-.559.048.018.378.092.734.163"/></svg>

<svg width="32" height="32" viewBox="0 0 32 32" fill="none" xmlns="http://www.w3.org/2000/svg"><path d="M13.707 4.535 C 11.358 4.588,9.761 4.708,9.098 4.881 C 8.633 5.002,8.074 5.317,7.694 5.673 C 7.133 6.198,7.049 6.425,6.212 9.650 C 5.813 11.189,5.475 12.467,5.460 12.490 C 5.446 12.514,4.819 12.533,4.068 12.533 C 2.723 12.533,2.699 12.535,2.484 12.661 C 2.357 12.736,2.210 12.886,2.133 13.021 C 2.009 13.238,2.000 13.302,2.000 14.000 C 2.000 14.712,2.007 14.758,2.141 14.987 C 2.374 15.382,2.621 15.488,3.373 15.511 L 4.000 15.531 4.000 15.975 C 4.000 17.150,4.283 20.058,4.488 20.987 C 4.560 21.316,4.730 21.734,4.876 21.947 C 4.980 22.097,4.988 22.200,5.013 23.600 L 5.040 25.093 5.195 25.429 C 5.385 25.841,5.751 26.186,6.176 26.355 C 6.458 26.467,6.578 26.478,7.813 26.496 C 9.640 26.522,10.011 26.436,10.525 25.864 C 10.856 25.497,10.987 25.078,10.987 24.389 L 10.987 23.883 11.240 23.914 C 11.379 23.932,12.948 23.961,14.726 23.980 L 17.959 24.013 17.995 24.490 C 18.058 25.319,18.341 25.923,18.956 26.538 C 19.348 26.931,19.814 27.222,20.320 27.394 C 20.592 27.486,20.825 27.493,23.520 27.493 C 26.742 27.493,26.603 27.507,27.333 27.127 C 27.781 26.895,28.403 26.260,28.653 25.781 C 29.022 25.075,29.012 25.233,29.013 20.122 L 29.013 15.524 29.240 15.457 C 29.556 15.362,29.885 15.021,29.964 14.707 C 29.999 14.571,30.027 14.253,30.027 14.000 C 30.027 13.351,29.950 13.094,29.673 12.817 C 29.507 12.651,29.386 12.579,29.229 12.554 C 29.054 12.526,29.013 12.498,29.013 12.404 C 29.013 11.972,28.666 11.162,28.294 10.727 C 27.722 10.057,26.983 9.620,26.253 9.521 C 26.024 9.490,25.973 9.464,25.973 9.380 C 25.973 9.244,25.799 8.904,25.672 8.793 C 25.383 8.539,25.333 8.533,23.467 8.533 C 22.029 8.533,21.674 8.548,21.552 8.611 C 21.316 8.732,21.071 9.047,21.035 9.274 L 21.002 9.479 20.654 9.537 C 20.006 9.644,19.109 10.176,18.689 10.701 C 18.294 11.194,18.027 11.773,18.027 12.134 L 18.027 12.306 14.947 12.335 C 13.253 12.350,10.913 12.394,9.747 12.431 C 8.582 12.469,7.613 12.484,7.594 12.465 C 7.566 12.437,8.587 8.402,8.836 7.559 C 8.930 7.240,9.165 6.970,9.443 6.858 C 9.701 6.755,11.055 6.646,13.200 6.555 C 16.112 6.432,21.975 6.616,22.527 6.848 C 22.619 6.886,22.824 7.029,22.985 7.166 C 23.145 7.303,23.370 7.441,23.484 7.471 C 24.210 7.667,24.892 6.979,24.696 6.251 C 24.571 5.786,23.836 5.190,23.073 4.934 C 22.131 4.617,17.941 4.439,13.707 4.535 M26.542 11.712 C 26.654 11.803,26.800 11.971,26.866 12.085 L 26.985 12.293 26.986 18.522 C 26.987 23.693,26.974 24.779,26.913 24.922 C 26.824 25.129,26.588 25.359,26.383 25.437 C 26.176 25.515,20.810 25.515,20.603 25.436 C 20.390 25.356,20.215 25.180,20.101 24.933 C 20.007 24.730,20.002 24.436,20.002 18.533 C 20.002 12.631,20.007 12.337,20.101 12.133 C 20.208 11.901,20.365 11.740,20.613 11.608 C 20.755 11.533,21.095 11.524,23.555 11.535 L 26.337 11.547 26.542 11.712 M17.693 14.328 L 17.973 14.362 17.973 16.435 L 17.973 18.508 15.535 18.494 L 13.097 18.480 13.033 18.100 C 12.960 17.666,12.874 17.474,12.658 17.270 C 12.257 16.891,11.641 16.927,11.268 17.351 C 10.970 17.691,10.955 17.839,11.120 18.832 C 11.315 20.007,11.384 20.162,11.813 20.392 C 12.023 20.505,12.077 20.507,15.000 20.522 L 17.973 20.538 17.973 21.251 L 17.973 21.963 17.453 22.003 C 16.826 22.050,12.823 21.992,11.520 21.917 C 9.943 21.825,8.690 21.660,7.627 21.404 C 6.865 21.220,6.631 21.084,6.497 20.747 C 6.444 20.615,6.176 18.340,6.209 18.307 C 6.218 18.298,6.638 18.342,7.143 18.406 C 8.207 18.540,8.376 18.517,8.700 18.192 C 9.052 17.840,9.090 17.314,8.794 16.898 C 8.591 16.613,8.343 16.537,7.136 16.386 L 6.015 16.246 6.035 15.709 C 6.060 15.051,6.150 14.859,6.522 14.674 C 6.749 14.561,6.881 14.543,7.774 14.505 C 8.626 14.468,11.939 14.371,13.813 14.329 C 15.174 14.298,17.438 14.297,17.693 14.328 M23.600 14.595 C 23.512 14.642,23.383 14.731,23.314 14.793 C 23.244 14.856,22.806 15.670,22.340 16.603 C 21.427 18.432,21.406 18.496,21.595 18.913 C 21.761 19.277,22.178 19.520,22.640 19.520 L 22.863 19.520 22.436 20.387 C 22.092 21.083,22.008 21.301,22.007 21.497 C 22.005 21.977,22.397 22.427,22.872 22.491 C 23.170 22.531,23.523 22.391,23.736 22.149 C 23.828 22.043,24.262 21.238,24.699 20.359 C 25.535 18.677,25.582 18.535,25.437 18.150 C 25.298 17.783,24.851 17.497,24.413 17.495 C 24.274 17.494,24.160 17.482,24.160 17.469 C 24.160 17.456,24.339 17.083,24.558 16.641 C 25.003 15.742,25.056 15.555,24.962 15.235 C 24.796 14.671,24.087 14.338,23.600 14.595 M7.808 23.492 C 8.163 23.563,8.579 23.638,8.733 23.658 L 9.013 23.694 9.013 24.087 L 9.013 24.480 8.000 24.480 L 6.987 24.480 6.987 23.888 C 6.987 23.360,6.996 23.299,7.074 23.329 C 7.122 23.347,7.452 23.421,7.808 23.492 " fill="#1A1C1F" stroke="none" fill-rule="evenodd"></path></svg>
